images/3234920.svg

<?xml version="1.0" encoding="UTF-8"?>
<svg xmlns="http://www.w3.org/2000/svg" xmlns:xlink="http://www.w3.org/1999/xlink" width="300pt" height="300pt" viewBox="0 0 300 300" version="1.1">
<defs>
<g>
<symbol overflow="visible" id="glyph0-0">
<path style="stroke:none;" d="M 0.59375 2.125 L 0.59375 -8.46875 L 6.59375 -8.46875 L 6.59375 2.125 Z M 1.265625 1.453125 L 5.9375 1.453125 L 5.9375 -7.78125 L 1.265625 -7.78125 Z M 1.265625 1.453125 "/>
</symbol>
<symbol overflow="visible" id="glyph0-1">
<path style="stroke:none;" d="M 4.734375 -7.953125 C 3.867188 -7.953125 3.179688 -7.628906 2.671875 -6.984375 C 2.171875 -6.347656 1.921875 -5.472656 1.921875 -4.359375 C 1.921875 -3.265625 2.171875 -2.394531 2.671875 -1.75 C 3.179688 -1.113281 3.867188 -0.796875 4.734375 -0.796875 C 5.585938 -0.796875 6.265625 -1.113281 6.765625 -1.75 C 7.273438 -2.394531 7.53125 -3.265625 7.53125 -4.359375 C 7.53125 -5.472656 7.273438 -6.347656 6.765625 -6.984375 C 6.265625 -7.628906 5.585938 -7.953125 4.734375 -7.953125 Z M 4.734375 -8.90625 C 5.953125 -8.90625 6.925781 -8.492188 7.65625 -7.671875 C 8.394531 -6.847656 8.765625 -5.742188 8.765625 -4.359375 C 8.765625 -2.984375 8.394531 -1.882812 7.65625 -1.0625 C 6.925781 -0.238281 5.953125 0.171875 4.734375 0.171875 C 3.503906 0.171875 2.519531 -0.238281 1.78125 -1.0625 C 1.039062 -1.882812 0.671875 -2.984375 0.671875 -4.359375 C 0.671875 -5.742188 1.039062 -6.847656 1.78125 -7.671875 C 2.519531 -8.492188 3.503906 -8.90625 4.734375 -8.90625 Z M 4.734375 -8.90625 "/>
</symbol>
<symbol overflow="visible" id="glyph0-2">
<path style="stroke:none;" d="M 1.171875 -8.75 L 2.765625 -8.75 L 6.65625 -1.4375 L 6.65625 -8.75 L 7.796875 -8.75 L 7.796875 0 L 6.203125 0 L 2.328125 -7.3125 L 2.328125 0 L 1.171875 0 Z M 1.171875 -8.75 "/>
</symbol>
<symbol overflow="visible" id="glyph0-3">
<path style="stroke:none;" d="M 1.171875 -8.75 L 6.203125 -8.75 L 6.203125 -7.75 L 2.359375 -7.75 L 2.359375 -5.171875 L 5.828125 -5.171875 L 5.828125 -4.171875 L 2.359375 -4.171875 L 2.359375 0 L 1.171875 0 Z M 1.171875 -8.75 "/>
</symbol>
</g>
</defs>
<g id="surface41149">
<rect x="0" y="0" width="300" height="300" style="fill:rgb(100%,100%,100%);fill-opacity:1;stroke:none;"/>
<path style="fill:none;stroke-width:1.2;stroke-linecap:butt;stroke-linejoin:miter;stroke:rgb(0%,0%,0%);stroke-opacity:1;stroke-miterlimit:10;" d="M 222.507812 246.949219 L 228.613281 232.554688 "/>
<path style="fill:none;stroke-width:1.2;stroke-linecap:butt;stroke-linejoin:miter;stroke:rgb(100%,0%,0%);stroke-opacity:1;stroke-miterlimit:10;" d="M 228.613281 232.554688 L 234.722656 218.160156 "/>
<path style="fill:none;stroke-width:1.2;stroke-linecap:butt;stroke-linejoin:miter;stroke:rgb(100%,0%,0%);stroke-opacity:1;stroke-miterlimit:10;" d="M 234.722656 218.160156 L 225.308594 205.671875 "/>
<path style="fill:none;stroke-width:1.2;stroke-linecap:butt;stroke-linejoin:miter;stroke:rgb(0%,0%,0%);stroke-opacity:1;stroke-miterlimit:10;" d="M 225.308594 205.671875 L 215.894531 193.1875 "/>
<path style=" stroke:none;fill-rule:nonzero;fill:rgb(100%,100%,100%);fill-opacity:1;" d="M 229.722656 211.160156 L 239.722656 211.160156 L 239.722656 225.160156 L 229.722656 225.160156 Z M 229.722656 211.160156 "/>
<g style="fill:rgb(100%,0%,0%);fill-opacity:1;">
  <use xlink:href="#glyph0-1" x="229.722656" y="222.298828"/>
</g>
<path style="fill:none;stroke-width:1.2;stroke-linecap:butt;stroke-linejoin:miter;stroke:rgb(0%,0%,0%);stroke-opacity:1;stroke-miterlimit:10;" d="M 215.894531 193.1875 L 228.109375 164.394531 "/>
<path style="fill:none;stroke-width:1.2;stroke-linecap:butt;stroke-linejoin:miter;stroke:rgb(0%,0%,0%);stroke-opacity:1;stroke-miterlimit:10;" d="M 228.109375 164.394531 L 218.695312 151.910156 "/>
<path style="fill:none;stroke-width:1.2;stroke-linecap:butt;stroke-linejoin:miter;stroke:rgb(0%,0%,100%);stroke-opacity:1;stroke-miterlimit:10;" d="M 218.695312 151.910156 L 209.28125 139.421875 "/>
<path style="fill:none;stroke-width:1.2;stroke-linecap:butt;stroke-linejoin:miter;stroke:rgb(0%,0%,100%);stroke-opacity:1;stroke-miterlimit:10;" d="M 209.28125 139.421875 L 215.386719 125.027344 "/>
<path style="fill:none;stroke-width:1.2;stroke-linecap:butt;stroke-linejoin:miter;stroke:rgb(0%,0%,0%);stroke-opacity:1;stroke-miterlimit:10;" d="M 215.386719 125.027344 L 221.496094 110.632812 "/>
<path style="fill:none;stroke-width:1.2;stroke-linecap:butt;stroke-linejoin:miter;stroke:rgb(0%,0%,0%);stroke-opacity:1;stroke-miterlimit:10;" d="M 178.242188 143.242188 L 193.761719 141.332031 "/>
<path style="fill:none;stroke-width:1.2;stroke-linecap:butt;stroke-linejoin:miter;stroke:rgb(0%,0%,100%);stroke-opacity:1;stroke-miterlimit:10;" d="M 193.761719 141.332031 L 209.28125 139.421875 "/>
<path style=" stroke:none;fill-rule:nonzero;fill:rgb(100%,100%,100%);fill-opacity:1;" d="M 205.28125 132.421875 L 214.28125 132.421875 L 214.28125 146.421875 L 205.28125 146.421875 Z M 205.28125 132.421875 "/>
<g style="fill:rgb(0%,0%,100%);fill-opacity:1;">
  <use xlink:href="#glyph0-2" x="205.28125" y="143.560547"/>
</g>
<path style="fill:none;stroke-width:1.2;stroke-linecap:butt;stroke-linejoin:miter;stroke:rgb(0%,0%,0%);stroke-opacity:1;stroke-miterlimit:10;" d="M 221.496094 110.632812 L 237.015625 108.722656 "/>
<path style="fill:none;stroke-width:1.2;stroke-linecap:butt;stroke-linejoin:miter;stroke:rgb(0%,0%,100%);stroke-opacity:1;stroke-miterlimit:10;" d="M 237.015625 108.722656 L 252.535156 106.8125 "/>
<path style="fill:none;stroke-width:1.2;stroke-linecap:butt;stroke-linejoin:miter;stroke:rgb(0%,0%,0%);stroke-opacity:1;stroke-miterlimit:10;" d="M 223.699219 102.945312 L 236.117188 101.417969 "/>
<path style="fill:none;stroke-width:1.2;stroke-linecap:butt;stroke-linejoin:miter;stroke:rgb(0%,0%,100%);stroke-opacity:1;stroke-miterlimit:10;" d="M 236.117188 101.417969 L 248.535156 99.890625 "/>
<path style="fill:none;stroke-width:1.2;stroke-linecap:butt;stroke-linejoin:miter;stroke:rgb(0%,0%,0%);stroke-opacity:1;stroke-miterlimit:10;" d="M 202.667969 85.65625 L 221.496094 110.632812 "/>
<path style="fill:none;stroke-width:1.2;stroke-linecap:butt;stroke-linejoin:miter;stroke:rgb(0%,0%,100%);stroke-opacity:1;stroke-miterlimit:10;" d="M 252.535156 106.8125 L 258.644531 92.417969 "/>
<path style="fill:none;stroke-width:1.2;stroke-linecap:butt;stroke-linejoin:miter;stroke:rgb(0%,0%,0%);stroke-opacity:1;stroke-miterlimit:10;" d="M 258.644531 92.417969 L 264.75 78.023438 "/>
<path style=" stroke:none;fill-rule:nonzero;fill:rgb(100%,100%,100%);fill-opacity:1;" d="M 248.535156 99.8125 L 257.535156 99.8125 L 257.535156 113.8125 L 248.535156 113.8125 Z M 248.535156 99.8125 "/>
<g style="fill:rgb(0%,0%,100%);fill-opacity:1;">
  <use xlink:href="#glyph0-2" x="248.535156" y="110.951172"/>
</g>
<path style="fill:none;stroke-width:1.2;stroke-linecap:butt;stroke-linejoin:miter;stroke:rgb(0%,0%,0%);stroke-opacity:1;stroke-miterlimit:10;" d="M 264.75 78.023438 L 255.335938 65.535156 "/>
<path style="fill:none;stroke-width:1.2;stroke-linecap:butt;stroke-linejoin:miter;stroke:rgb(0%,0%,100%);stroke-opacity:1;stroke-miterlimit:10;" d="M 255.335938 65.535156 L 245.921875 53.050781 "/>
<path style="fill:none;stroke-width:1.2;stroke-linecap:butt;stroke-linejoin:miter;stroke:rgb(0%,0%,0%);stroke-opacity:1;stroke-miterlimit:10;" d="M 256.992188 79.953125 L 249.460938 69.964844 "/>
<path style="fill:none;stroke-width:1.2;stroke-linecap:butt;stroke-linejoin:miter;stroke:rgb(0%,0%,100%);stroke-opacity:1;stroke-miterlimit:10;" d="M 249.460938 69.964844 L 241.929688 59.976562 "/>
<path style="fill:none;stroke-width:1.2;stroke-linecap:butt;stroke-linejoin:miter;stroke:rgb(0%,0%,100%);stroke-opacity:1;stroke-miterlimit:10;" d="M 245.921875 53.050781 L 230.402344 54.957031 "/>
<path style="fill:none;stroke-width:1.2;stroke-linecap:butt;stroke-linejoin:miter;stroke:rgb(0%,0%,0%);stroke-opacity:1;stroke-miterlimit:10;" d="M 230.402344 54.957031 L 214.882812 56.867188 "/>
<path style=" stroke:none;fill-rule:nonzero;fill:rgb(100%,100%,100%);fill-opacity:1;" d="M 241.921875 46.050781 L 250.921875 46.050781 L 250.921875 60.050781 L 241.921875 60.050781 Z M 241.921875 46.050781 "/>
<g style="fill:rgb(0%,0%,100%);fill-opacity:1;">
  <use xlink:href="#glyph0-2" x="241.921875" y="57.189453"/>
</g>
<path style="fill:none;stroke-width:1.2;stroke-linecap:butt;stroke-linejoin:miter;stroke:rgb(0%,0%,0%);stroke-opacity:1;stroke-miterlimit:10;" d="M 214.882812 56.867188 L 202.667969 85.65625 "/>
<path style="fill:none;stroke-width:1.2;stroke-linecap:butt;stroke-linejoin:miter;stroke:rgb(0%,0%,0%);stroke-opacity:1;stroke-miterlimit:10;" d="M 220.433594 62.621094 L 210.664062 85.652344 "/>
<path style="fill:none;stroke-width:1.2;stroke-linecap:butt;stroke-linejoin:miter;stroke:rgb(0%,0%,0%);stroke-opacity:1;stroke-miterlimit:10;" d="M 202.667969 85.65625 L 187.148438 87.566406 "/>
<path style="fill:none;stroke-width:1.2;stroke-linecap:butt;stroke-linejoin:miter;stroke:rgb(0%,0%,100%);stroke-opacity:1;stroke-miterlimit:10;" d="M 187.148438 87.566406 L 171.628906 89.476562 "/>
<path style="fill:none;stroke-width:1.2;stroke-linecap:butt;stroke-linejoin:miter;stroke:rgb(0%,0%,100%);stroke-opacity:1;stroke-miterlimit:10;" d="M 171.628906 89.476562 L 165.519531 103.871094 "/>
<path style="fill:none;stroke-width:1.2;stroke-linecap:butt;stroke-linejoin:miter;stroke:rgb(0%,0%,0%);stroke-opacity:1;stroke-miterlimit:10;" d="M 165.519531 103.871094 L 159.414062 118.265625 "/>
<path style="fill:none;stroke-width:1.2;stroke-linecap:butt;stroke-linejoin:miter;stroke:rgb(0%,0%,100%);stroke-opacity:1;stroke-miterlimit:10;" d="M 177.179688 95.230469 L 172.292969 106.746094 "/>
<path style="fill:none;stroke-width:1.2;stroke-linecap:butt;stroke-linejoin:miter;stroke:rgb(0%,0%,0%);stroke-opacity:1;stroke-miterlimit:10;" d="M 172.292969 106.746094 L 167.410156 118.261719 "/>
<path style=" stroke:none;fill-rule:nonzero;fill:rgb(100%,100%,100%);fill-opacity:1;" d="M 167.628906 82.476562 L 176.628906 82.476562 L 176.628906 96.476562 L 167.628906 96.476562 Z M 167.628906 82.476562 "/>
<g style="fill:rgb(0%,0%,100%);fill-opacity:1;">
  <use xlink:href="#glyph0-2" x="167.628906" y="93.615234"/>
</g>
<path style="fill:none;stroke-width:1.2;stroke-linecap:butt;stroke-linejoin:miter;stroke:rgb(0%,0%,0%);stroke-opacity:1;stroke-miterlimit:10;" d="M 159.414062 118.265625 L 178.242188 143.242188 "/>
<path style="fill:none;stroke-width:1.2;stroke-linecap:butt;stroke-linejoin:miter;stroke:rgb(0%,0%,0%);stroke-opacity:1;stroke-miterlimit:10;" d="M 159.414062 118.265625 L 128.371094 122.085938 "/>
<path style="fill:none;stroke-width:1.2;stroke-linecap:butt;stroke-linejoin:miter;stroke:rgb(0%,0%,0%);stroke-opacity:1;stroke-miterlimit:10;" d="M 174.851562 141.804688 L 168.746094 156.199219 "/>
<path style="fill:none;stroke-width:1.2;stroke-linecap:butt;stroke-linejoin:miter;stroke:rgb(100%,0%,0%);stroke-opacity:1;stroke-miterlimit:10;" d="M 168.746094 156.199219 L 162.640625 170.59375 "/>
<path style="fill:none;stroke-width:1.2;stroke-linecap:butt;stroke-linejoin:miter;stroke:rgb(0%,0%,0%);stroke-opacity:1;stroke-miterlimit:10;" d="M 181.628906 144.675781 L 175.519531 159.074219 "/>
<path style="fill:none;stroke-width:1.2;stroke-linecap:butt;stroke-linejoin:miter;stroke:rgb(100%,0%,0%);stroke-opacity:1;stroke-miterlimit:10;" d="M 175.519531 159.074219 L 169.414062 173.46875 "/>
<path style=" stroke:none;fill-rule:nonzero;fill:rgb(100%,100%,100%);fill-opacity:1;" d="M 156.027344 165.03125 L 166.027344 165.03125 L 166.027344 179.03125 L 156.027344 179.03125 Z M 156.027344 165.03125 "/>
<g style="fill:rgb(100%,0%,0%);fill-opacity:1;">
  <use xlink:href="#glyph0-1" x="156.027344" y="176.169922"/>
</g>
<path style="fill:none;stroke-width:1.2;stroke-linecap:butt;stroke-linejoin:miter;stroke:rgb(0%,0%,0%);stroke-opacity:1;stroke-miterlimit:10;" d="M 128.371094 122.085938 L 109.546875 97.113281 "/>
<path style="fill:none;stroke-width:1.2;stroke-linecap:butt;stroke-linejoin:miter;stroke:rgb(0%,0%,0%);stroke-opacity:1;stroke-miterlimit:10;" d="M 120.613281 124.015625 L 105.550781 104.039062 "/>
<path style="fill:none;stroke-width:1.2;stroke-linecap:butt;stroke-linejoin:miter;stroke:rgb(0%,0%,0%);stroke-opacity:1;stroke-miterlimit:10;" d="M 116.160156 150.875 L 128.371094 122.085938 "/>
<path style="fill:none;stroke-width:1.2;stroke-linecap:butt;stroke-linejoin:miter;stroke:rgb(0%,0%,0%);stroke-opacity:1;stroke-miterlimit:10;" d="M 109.546875 97.113281 L 78.503906 100.929688 "/>
<path style="fill:none;stroke-width:1.2;stroke-linecap:butt;stroke-linejoin:miter;stroke:rgb(0%,0%,0%);stroke-opacity:1;stroke-miterlimit:10;" d="M 78.503906 100.929688 L 66.289062 129.722656 "/>
<path style="fill:none;stroke-width:1.2;stroke-linecap:butt;stroke-linejoin:miter;stroke:rgb(0%,0%,0%);stroke-opacity:1;stroke-miterlimit:10;" d="M 84.058594 106.683594 L 74.285156 129.714844 "/>
<path style="fill:none;stroke-width:1.2;stroke-linecap:butt;stroke-linejoin:miter;stroke:rgb(0%,0%,0%);stroke-opacity:1;stroke-miterlimit:10;" d="M 66.289062 129.722656 L 85.117188 154.695312 "/>
<path style="fill:none;stroke-width:1.2;stroke-linecap:butt;stroke-linejoin:miter;stroke:rgb(0%,0%,0%);stroke-opacity:1;stroke-miterlimit:10;" d="M 66.289062 129.722656 L 50.769531 131.628906 "/>
<path style="fill:none;stroke-width:1.2;stroke-linecap:butt;stroke-linejoin:miter;stroke:rgb(20%,80%,80%);stroke-opacity:1;stroke-miterlimit:10;" d="M 50.769531 131.628906 L 35.25 133.539062 "/>
<path style="fill:none;stroke-width:1.2;stroke-linecap:butt;stroke-linejoin:miter;stroke:rgb(0%,0%,0%);stroke-opacity:1;stroke-miterlimit:10;" d="M 85.117188 154.695312 L 116.160156 150.875 "/>
<path style="fill:none;stroke-width:1.2;stroke-linecap:butt;stroke-linejoin:miter;stroke:rgb(0%,0%,0%);stroke-opacity:1;stroke-miterlimit:10;" d="M 87.324219 147.007812 L 112.15625 143.953125 "/>
<path style=" stroke:none;fill-rule:nonzero;fill:rgb(100%,100%,100%);fill-opacity:1;" d="M 28.25 126.539062 L 35.25 126.539062 L 35.25 140.539062 L 28.25 140.539062 Z M 28.25 126.539062 "/>
<g style="fill:rgb(20%,80%,80%);fill-opacity:1;">
  <use xlink:href="#glyph0-3" x="28.25" y="137.677734"/>
</g>
</g>
</svg>

<svg xmlns="http://www.w3.org/2000/svg" xmlns:xlink="http://www.w3.org/1999/xlink" width="300pt" height="300pt" viewBox="0 0 300 300"><defs><symbol overflow="visible"><path d="M.594 2.125V-8.47h6V2.126zm.672-.672h4.671V-7.78h-4.67zm0 0"/></symbol><symbol overflow="visible" id="a"><path d="M4.734-7.953c-.867 0-1.554.324-2.062.97-.5.635-.75 1.51-.75 2.624 0 1.094.25 1.965.75 2.61.508.637 1.195.953 2.062.953.852 0 1.532-.316 2.032-.953.507-.645.765-1.516.765-2.61 0-1.113-.257-1.988-.764-2.624-.5-.645-1.18-.97-2.032-.97zm0-.953c1.22 0 2.192.414 2.922 1.234.74.824 1.11 1.93 1.11 3.313 0 1.376-.37 2.477-1.11 3.298C6.926-.24 5.953.17 4.734.17c-1.23 0-2.214-.41-2.953-1.234C1.04-1.882.673-2.984.673-4.36c0-1.382.367-2.488 1.11-3.312.738-.82 1.722-1.234 2.952-1.234zm0 0"/></symbol><symbol overflow="visible" id="b"><path d="M1.172-8.75h1.594l3.89 7.313V-8.75h1.14V0H6.204L2.328-7.313V0H1.172zm0 0"/></symbol><symbol overflow="visible" id="c"><path d="M1.172-8.75h5.03v1H2.36v2.578h3.468v1h-3.47V0H1.173zm0 0"/></symbol></defs><g><path fill="#fff" d="M0 0h300v300H0z"/><path d="M222.508 246.95l6.105-14.395" stroke-width="1.2" stroke="#000" stroke-miterlimit="10" fill="none"/><path d="M228.613 232.555l6.11-14.395M234.723 218.16l-9.414-12.488" stroke-width="1.2" stroke="#f00" stroke-miterlimit="10" fill="none"/><path d="M225.31 205.672l-9.415-12.484" stroke-width="1.2" stroke="#000" stroke-miterlimit="10" fill="none"/><path d="M229.723 211.16h10v14h-10zm0 0" fill="#fff"/><use xlink:href="#a" x="229.723" y="222.299" fill="#f00"/><path d="M215.895 193.188l12.214-28.793M228.11 164.395l-9.415-12.485" stroke-width="1.2" stroke="#000" stroke-miterlimit="10" fill="none"/><path d="M218.695 151.91l-9.414-12.488M209.28 139.422l6.107-14.395" stroke-width="1.2" stroke="#00f" stroke-miterlimit="10" fill="none"/><path d="M215.387 125.027l6.11-14.394M178.242 143.242l15.52-1.91" stroke-width="1.2" stroke="#000" stroke-miterlimit="10" fill="none"/><path d="M193.762 141.332l15.52-1.91" stroke-width="1.2" stroke="#00f" stroke-miterlimit="10" fill="none"/><path d="M205.28 132.422h9v14h-9zm0 0" fill="#fff"/><use xlink:href="#b" x="205.281" y="143.561" fill="#00f"/><path d="M221.496 110.633l15.52-1.91" stroke-width="1.2" stroke="#000" stroke-miterlimit="10" fill="none"/><path d="M237.016 108.723l15.52-1.91" stroke-width="1.2" stroke="#00f" stroke-miterlimit="10" fill="none"/><path d="M223.7 102.945l12.417-1.527" stroke-width="1.2" stroke="#000" stroke-miterlimit="10" fill="none"/><path d="M236.117 101.418l12.418-1.527" stroke-width="1.2" stroke="#00f" stroke-miterlimit="10" fill="none"/><path d="M202.668 85.656l18.828 24.977" stroke-width="1.2" stroke="#000" stroke-miterlimit="10" fill="none"/><path d="M252.535 106.813l6.11-14.395" stroke-width="1.2" stroke="#00f" stroke-miterlimit="10" fill="none"/><path d="M258.645 92.418l6.105-14.395" stroke-width="1.2" stroke="#000" stroke-miterlimit="10" fill="none"/><path d="M248.535 99.813h9v14h-9zm0 0" fill="#fff"/><use xlink:href="#b" x="248.535" y="110.951" fill="#00f"/><path d="M264.75 78.023l-9.414-12.488" stroke-width="1.2" stroke="#000" stroke-miterlimit="10" fill="none"/><path d="M255.336 65.535l-9.414-12.484" stroke-width="1.2" stroke="#00f" stroke-miterlimit="10" fill="none"/><path d="M256.992 79.953l-7.53-9.988" stroke-width="1.2" stroke="#000" stroke-miterlimit="10" fill="none"/><path d="M249.46 69.965l-7.53-9.988M245.922 53.05l-15.52 1.907" stroke-width="1.2" stroke="#00f" stroke-miterlimit="10" fill="none"/><path d="M230.402 54.957l-15.52 1.91" stroke-width="1.2" stroke="#000" stroke-miterlimit="10" fill="none"/><path d="M241.922 46.05h9v14h-9zm0 0" fill="#fff"/><use xlink:href="#b" x="241.922" y="57.189" fill="#00f"/><path d="M214.883 56.867l-12.215 28.79M220.434 62.62l-9.77 23.032M202.668 85.656l-15.52 1.91" stroke-width="1.2" stroke="#000" stroke-miterlimit="10" fill="none"/><path d="M187.148 87.566l-15.52 1.91M171.63 89.477l-6.11 14.394" stroke-width="1.2" stroke="#00f" stroke-miterlimit="10" fill="none"/><path d="M165.52 103.87l-6.106 14.396" stroke-width="1.2" stroke="#000" stroke-miterlimit="10" fill="none"/><path d="M177.18 95.23l-4.887 11.516" stroke-width="1.2" stroke="#00f" stroke-miterlimit="10" fill="none"/><path d="M172.293 106.746l-4.883 11.516" stroke-width="1.2" stroke="#000" stroke-miterlimit="10" fill="none"/><path d="M167.63 82.477h9v14h-9zm0 0" fill="#fff"/><use xlink:href="#b" x="167.629" y="93.615" fill="#00f"/><path d="M159.414 118.266l18.828 24.976M159.414 118.266l-31.043 3.82M174.852 141.805l-6.106 14.394" stroke-width="1.2" stroke="#000" stroke-miterlimit="10" fill="none"/><path d="M168.746 156.2l-6.105 14.394" stroke-width="1.2" stroke="#f00" stroke-miterlimit="10" fill="none"/><path d="M181.63 144.676l-6.11 14.398" stroke-width="1.2" stroke="#000" stroke-miterlimit="10" fill="none"/><path d="M175.52 159.074l-6.106 14.395" stroke-width="1.2" stroke="#f00" stroke-miterlimit="10" fill="none"/><path d="M156.027 165.03h10v14h-10zm0 0" fill="#fff"/><use xlink:href="#a" x="156.027" y="176.17" fill="#f00"/><path d="M128.37 122.086l-18.823-24.973M120.613 124.016L105.55 104.04M116.16 150.875l12.21-28.79M109.547 97.113l-31.043 3.817M78.504 100.93L66.29 129.723M84.06 106.684l-9.775 23.03M66.29 129.723l18.827 24.972M66.29 129.723l-15.52 1.906" stroke-width="1.2" stroke="#000" stroke-miterlimit="10" fill="none"/><path d="M50.77 131.63l-15.52 1.91" stroke-width="1.2" stroke="#3cc" stroke-miterlimit="10" fill="none"/><path d="M85.117 154.695l31.043-3.82M87.324 147.008l24.832-3.055" stroke-width="1.2" stroke="#000" stroke-miterlimit="10" fill="none"/><path d="M28.25 126.54h7v14h-7zm0 0" fill="#fff"/><use xlink:href="#c" x="28.25" y="137.678" fill="#3cc"/></g></svg>
